X:288
T: ES WOLLT EIN VOGEL HOCHZEIT MACHEN
N: E0163A
O: Europa, Mitteleuropa, Deutschland, Danzig
R: erzaehlendes Volks - Lied, Sage, Tier - Maerchen
M: 2/4
L: 1/8
K: G
D | GABc | dddd |
ecge | eddz |
ccc2 | BBB2 |
ABcA | AGG

@@@ Tune index: 3938
